front/public/static/landing/logos/gray/glean.svg

<svg fill="none" height="120" viewBox="0 0 301 120" width="301" xmlns="http://www.w3.org/2000/svg"><g fill="#000"><path d="m145.757 76.919c-1.65 1.5717-3.565 2.8816-5.743 3.7984-2.113.9168-4.49 1.3752-6.999 1.3752-1.32 0-2.575-.1307-3.763-.3925-1.188-.2619-2.377-.6549-3.499-1.1133-1.123-.5237-2.179-1.1134-3.169-1.7683-.99-.7209-1.915-1.5064-2.707-2.3579l31.228-11.9842 13.27-5.108c-.726-4.5843-2.376-8.9066-4.885-12.6395-5.678-8.5134-15.449-14.0799-26.475-14.0799-17.496 0-31.756 14.1456-31.756 31.4997 0 1.6376.132 3.2093.396 4.7811.726 4.5839 2.377 8.9066 4.885 12.6391 1.453 2.0954 3.103 4.0602 5.018 5.7632 1.915 1.7029 3.961 3.2087 6.272 4.4533 2.245 1.244 4.688 2.2267 7.262 2.881 2.575.6549 5.216.9827 7.989.9827 4.357 0 8.583-.8515 12.346-2.4885 3.83-1.5717 7.197-3.9296 10.101-6.7453 2.906-2.8816 5.216-6.2216 6.801-10.02.66-1.5717 1.188-3.2747 1.584-4.977h-14.392c-.859 2.0954-2.113 3.929-3.764 5.5007zm-12.676-30.7794c5.15 0 9.837 2.2268 13.139 5.6321l-31.229 11.9845c.198-9.6926 8.253-17.6166 18.09-17.6166z"/><path d="m88.2917 69.397-.0662-69.397h-13.8124l.0662 69.0674c0 14.5786 9.7813 24.9354 24.0563 25.9906v-13.5891c-6.0137-.9894-10.2439-5.739-10.2439-12.0719z"/><path d="m88.1394 69.527-.0662-69.396995h-13.8125l.0662 69.067495c0 14.5785 9.7813 24.9353 24.0563 25.9906v-13.5892c-6.0136-.9894-10.2438-5.739-10.2438-12.0719z"/><path d="m234.377 63.0322c-.671-16.7652-14.814-30.2557-32.176-30.2557-17.763 0-32.242 14.1456-32.242 31.4996 0 17.3541 14.479 31.5004 32.242 31.5004 6.838 0 13.206-2.096 18.434-5.6979v5.1083h13.876l-.134-32.0241zm-32.176 19.2537c-10.121 0-18.366-8.0551-18.366-17.9439 0-9.8887 8.245-17.9439 18.366-17.9439 10.122 0 18.367 8.055 18.367 17.9439 0 9.889-8.245 17.9439-18.367 17.9439z"/><path d="m270.561 32.4187c-16.361 0-29.624 13.2135-29.624 29.5134v33.4192h14.082v-33.4414c0-8.4761 6.897-15.3474 15.405-15.3474h.273c8.508 0 15.405 6.8713 15.405 15.3474v33.4414h14.082v-33.4192c0-16.2999-13.263-29.5134-29.623-29.5134z"/><path d="m77.8311 96.3425c-.9347 1.3241-1.9296 2.6122-2.9795 3.8455-1.0502 1.24-2.1495 2.426-3.3028 3.569-1.1472 1.142-2.3492 2.231-3.5996 3.271-1.2443 1.04-2.5368 2.02-3.8721 2.945-1.3293.932-2.702 1.802-4.1103 2.613-1.402.804-2.8464 1.548-4.3213 2.231-1.4689.683-2.9683 1.3-4.5039 1.851-1.5173.556-3.0714 1.04-4.6494 1.451-1.5599.417-3.1445.769-4.7529 1.047-1.5904.278-3.1993.49-4.8321.623-1.6025.139-3.2234.211-4.8623.211s-3.2598-.072-4.8623-.211c-1.6328-.133-3.2478-.345-4.832-.623-1.6083-.278-3.1983-.63-4.752-1.047l3.5752-13.292c1.1714.32 2.3674.58 3.5752.786 1.1957.212 2.4097.369 3.6358.472 1.2079.103 2.4279.157 3.6601.157s2.4522-.054 3.6602-.157c1.226-.103 2.44-.26 3.6357-.472 1.2078-.206 2.4038-.466 3.5752-.786 1.1898-.309 2.3557-.672 3.5029-1.089 1.1532-.411 2.2821-.877 3.3868-1.391 1.1107-.514 2.1977-1.069 3.2539-1.68 1.0622-.605 2.1-1.2647 3.1015-1.9602 1.0077-.6954 1.9793-1.4328 2.9141-2.2129.9409-.7801 1.8449-1.6032 2.7129-2.4619.868-.8647 1.7002-1.7533 2.4892-2.6846.7892-.9313 1.5421-1.8987 2.2461-2.8965zm-12.3741-63.9248-8.9609 11.4258c4.6248 5.5097 7.41 12.6045 7.4101 20.3486 0 17.5307-14.2641 31.742-31.8603 31.7422-17.5964 0-31.86133-14.2115-31.86133-31.7422.000249-17.5304 14.26513-31.7412 31.86133-31.7412 4.7993.0001 9.3499 1.0588 13.4316 2.9522l9.0274-11.5098zm-33.4111 13.6651c-10.0389 0-18.1775 8.108-18.1777 18.1093 0 10.0016 8.1386 18.1104 18.1777 18.1104 10.0389-.0002 18.1768-8.1089 18.1768-18.1104-.0003-10.0012-8.138-18.1092-18.1768-18.1093z"/></g></svg>

<svg width="301" height="120" viewBox="0 0 301 120" fill="none" xmlns="http://www.w3.org/2000/svg">
<path d="M145.757 76.919C144.107 78.4907 142.192 79.8006 140.014 80.7174C137.901 81.6342 135.524 82.0926 133.015 82.0926C131.695 82.0926 130.44 81.9619 129.252 81.7001C128.064 81.4382 126.875 81.0452 125.753 80.5868C124.63 80.0631 123.574 79.4734 122.584 78.8185C121.594 78.0976 120.669 77.3121 119.877 76.4606L151.105 64.4764L164.375 59.3684C163.649 54.7841 161.999 50.4618 159.49 46.7289C153.812 38.2155 144.041 32.649 133.015 32.649C115.519 32.649 101.259 46.7946 101.259 64.1487C101.259 65.7863 101.391 67.358 101.655 68.9298C102.381 73.5137 104.032 77.8364 106.54 81.5689C107.993 83.6643 109.643 85.6291 111.558 87.3321C113.473 89.035 115.519 90.5408 117.83 91.7854C120.075 93.0294 122.518 94.0121 125.092 94.6664C127.667 95.3213 130.308 95.6491 133.081 95.6491C137.438 95.6491 141.664 94.7976 145.427 93.1606C149.257 91.5889 152.624 89.231 155.528 86.4153C158.434 83.5337 160.744 80.1937 162.329 76.3953C162.989 74.8236 163.517 73.1206 163.913 71.4183H149.521C148.662 73.5137 147.408 75.3473 145.757 76.919ZM133.081 46.1396C138.231 46.1396 142.918 48.3664 146.22 51.7717L114.991 63.7562C115.189 54.0636 123.244 46.1396 133.081 46.1396Z" fill="black"/>
<path d="M88.2917 69.397L88.2255 0H74.4131L74.4793 69.0674C74.4793 83.646 84.2606 94.0028 98.5356 95.058V81.4689C92.5219 80.4795 88.2917 75.7299 88.2917 69.397Z" fill="black"/>
<path d="M88.1394 69.527L88.0732 0.130005H74.2607L74.3269 69.1975C74.3269 83.776 84.1082 94.1328 98.3832 95.1881V81.5989C92.3696 80.6095 88.1394 75.8599 88.1394 69.527Z" fill="black"/>
<path d="M234.377 63.0322C233.706 46.267 219.563 32.7765 202.201 32.7765C184.438 32.7765 169.959 46.9221 169.959 64.2761C169.959 81.6302 184.438 95.7765 202.201 95.7765C209.039 95.7765 215.407 93.6805 220.635 90.0786V95.1869H234.511L234.377 63.1628V63.0322ZM202.201 82.2859C192.08 82.2859 183.835 74.2308 183.835 64.342C183.835 54.4533 192.08 46.3981 202.201 46.3981C212.323 46.3981 220.568 54.4531 220.568 64.342C220.568 74.231 212.323 82.2859 202.201 82.2859Z" fill="black"/>
<path d="M270.561 32.4187C254.2 32.4187 240.937 45.6322 240.937 61.9321V95.3513H255.019V61.9099C255.019 53.4338 261.916 46.5625 270.424 46.5625H270.697C279.205 46.5625 286.102 53.4338 286.102 61.9099V95.3513H300.184V61.9321C300.184 45.6322 286.921 32.4187 270.561 32.4187Z" fill="black"/>
<path d="M77.8311 96.3425C76.8964 97.6666 75.9015 98.9547 74.8516 100.188C73.8014 101.428 72.7021 102.614 71.5488 103.757C70.4016 104.899 69.1996 105.988 67.9492 107.028C66.7049 108.068 65.4124 109.048 64.0771 109.973C62.7478 110.905 61.3751 111.775 59.9668 112.586C58.5648 113.39 57.1204 114.134 55.6455 114.817C54.1766 115.5 52.6772 116.117 51.1416 116.668C49.6243 117.224 48.0702 117.708 46.4922 118.119C44.9323 118.536 43.3477 118.888 41.7393 119.166C40.1489 119.444 38.54 119.656 36.9072 119.789C35.3047 119.928 33.6838 120 32.0449 120C30.406 120 28.7851 119.928 27.1826 119.789C25.5498 119.656 23.9348 119.444 22.3506 119.166C20.7423 118.888 19.1523 118.536 17.5986 118.119L21.1738 104.827C22.3452 105.147 23.5412 105.407 24.749 105.613C25.9447 105.825 27.1587 105.982 28.3848 106.085C29.5927 106.188 30.8127 106.242 32.0449 106.242C33.2771 106.242 34.4971 106.188 35.7051 106.085C36.9311 105.982 38.1451 105.825 39.3408 105.613C40.5486 105.407 41.7446 105.147 42.916 104.827C44.1058 104.518 45.2717 104.155 46.4189 103.738C47.5721 103.327 48.701 102.861 49.8057 102.347C50.9164 101.833 52.0034 101.278 53.0596 100.667C54.1218 100.062 55.1596 99.4023 56.1611 98.7068C57.1688 98.0114 58.1404 97.274 59.0752 96.4939C60.0161 95.7138 60.9201 94.8907 61.7881 94.032C62.6561 93.1673 63.4883 92.2787 64.2773 91.3474C65.0665 90.4161 65.8194 89.4487 66.5234 88.4509L77.8311 96.3425ZM65.457 32.4177L56.4961 43.8435C61.1209 49.3532 63.9061 56.448 63.9062 64.1921C63.9062 81.7228 49.6421 95.9341 32.0459 95.9343C14.4495 95.9343 0.18457 81.7228 0.18457 64.1921C0.184819 46.6617 14.4497 32.4509 32.0459 32.4509C36.8452 32.451 41.3958 33.5097 45.4775 35.4031L54.5049 23.8933L65.457 32.4177ZM32.0459 46.0828C22.007 46.0828 13.8684 54.1908 13.8682 64.1921C13.8682 74.1937 22.0068 82.3025 32.0459 82.3025C42.0848 82.3023 50.2227 74.1936 50.2227 64.1921C50.2224 54.1909 42.0847 46.0829 32.0459 46.0828Z" fill="black"/>
</svg>
